X: 26
M:C|
L:1/8
K:Bb
(uFE)|D>BF>d B>fd>b|a>gf>g e>cA>c|\
((3BdB) F>B G>ec>A|B>Ac>A F2(DE)|
e>fg>a b>fg>e|d>f ((3ABc)B2:|
|:(ucB)|A>Fc>F B>Fd>F|c>Fe>c ((3BdB) ((3FGA)|\
d>cB>A E2 (gf)|e>f ((3ABc) F2b2|\
(3.a.g.f (3.e.d.c (3.B.A.G (3.E.E.C|B,2b2B,2:|


